X: 494
%
T: Mrs. Rachel Gibson
C:From J.T. Surennes Collection
O:Scotland
B:Keith Norman MacDonald : "The Skye collection of the best reels & strathspeys extant" : 1887
Z:Ralph Palmer
R:Reel
M:C
L:1/8
K:A
e | cAA<A cAec | dBfg aefd | cAA<A cAec | dfBd cAA :| g | {/b}agaf ecAc | Bbba gbeg |
agaf ecAc | dfBd cAAg | {/b}agaf ecAc | Bbba gbeg | aefb afec | dfBd cAA :|


